packages/foundations/assets/icons/functional/images/business & payment/shopping_basket_disabled_24_filled.svg

<svg xmlns="http://www.w3.org/2000/svg" width="20" height="20" fill="none"><path fill="#1A1C1F" fill-rule="evenodd" d="M9.419 2.533a3.8 3.8 0 0 0-2.29 1.122c-.644.662-1 1.447-1.1 2.428l-.038.38-1.587.01-1.587.01-.185.087c-.252.118-.413.267-.516.478-.168.344-.187.207.583 4.082l.705 3.547-.617.62c-.676.68-.75.789-.778 1.151-.045.576.46 1.082 1.043 1.046.423-.027-.012.385 6.936-6.568 6.14-6.144 6.374-6.383 6.432-6.559.169-.509-.037-1.024-.501-1.251a1.06 1.06 0 0 0-.969.06c-.055.037-.398.361-.762.72-.412.407-.668.637-.679.61a4 4 0 0 0-.186-.299c-.561-.838-1.463-1.425-2.498-1.624-.33-.063-1.086-.09-1.406-.05m1.031 2.016a1.85 1.85 0 0 1 1.466 1.367l.051.199-.191.192-.191.193H7.993l.023-.208c.057-.52.209-.874.517-1.203.45-.481 1.168-.683 1.917-.54m1.797 6.954L7.25 16.501l4.217-.009 4.216-.009.164-.08c.197-.097.392-.285.484-.466.046-.088.334-1.493.872-4.243.639-3.268.8-4.146.786-4.283-.039-.393-.272-.7-.659-.867-.084-.037-.222.098-5.083 4.959"/></svg>

<svg width="20" height="20" viewBox="0 0 20 20" fill="none" xmlns="http://www.w3.org/2000/svg"><path d="M9.419 2.533 C 8.523 2.646,7.738 3.031,7.129 3.655 C 6.485 4.317,6.129 5.102,6.029 6.083 L 5.991 6.463 4.404 6.473 L 2.817 6.483 2.632 6.570 C 2.380 6.688,2.219 6.837,2.116 7.048 C 1.948 7.392,1.929 7.255,2.699 11.130 L 3.404 14.677 2.787 15.297 C 2.111 15.977,2.037 16.086,2.009 16.448 C 1.964 17.024,2.469 17.530,3.052 17.494 C 3.475 17.467,3.040 17.879,9.988 10.926 C 16.128 4.782,16.362 4.543,16.420 4.367 C 16.589 3.858,16.383 3.343,15.919 3.116 C 15.632 2.976,15.211 3.002,14.950 3.176 C 14.895 3.213,14.552 3.537,14.188 3.896 C 13.776 4.303,13.520 4.533,13.509 4.506 C 13.500 4.481,13.416 4.347,13.323 4.207 C 12.762 3.369,11.860 2.782,10.825 2.583 C 10.495 2.520,9.739 2.493,9.419 2.533 M10.450 4.549 C 11.175 4.688,11.737 5.211,11.916 5.916 L 11.967 6.115 11.776 6.307 L 11.585 6.500 9.789 6.500 L 7.993 6.500 8.016 6.292 C 8.073 5.772,8.225 5.418,8.533 5.089 C 8.983 4.608,9.701 4.406,10.450 4.549 M12.247 11.503 L 7.250 16.501 11.467 16.492 L 15.683 16.483 15.847 16.403 C 16.044 16.306,16.239 16.118,16.331 15.937 C 16.377 15.849,16.665 14.444,17.203 11.694 C 17.842 8.426,18.003 7.548,17.989 7.411 C 17.950 7.018,17.717 6.711,17.330 6.544 C 17.246 6.507,17.108 6.642,12.247 11.503 " fill="#1A1C1F" stroke="none" fill-rule="evenodd"></path></svg>
